src/assets/img/refresh.svg

<svg xmlns="http://www.w3.org/2000/svg" viewBox="0 0 16 16"><path d="M2.083 9H0v5l1.481-1.361A8.001 8.001 0 0 0 15.938 9h-2.021A6.001 6.001 0 0 1 2.97 11.271L5.441 9H2.083zM8 0A8.001 8.001 0 0 0 .062 7h2.021a6.001 6.001 0 0 1 11.041-2.124L11 7h5V2l-1.432 1.432A7.988 7.988 0 0 0 8 0z" fill="#030104"/></svg>

<?xml version="1.0"?>
<svg width="16" height="16" xmlns="http://www.w3.org/2000/svg" xmlns:svg="http://www.w3.org/2000/svg">
 <g class="layer">
  <title>Layer 1</title>
  <path d="m2.08,9l-2.08,0l0,5l1.48,-1.36a8,8 0 0 0 14.46,-3.64l-2.02,0a6,6 0 0 1 -10.95,2.27l2.47,-2.27l-3.36,0zm5.92,-9a8,8 0 0 0 -7.94,7l2.02,0a6,6 0 0 1 11.04,-2.12l-2.12,2.12l5,0l0,-5l-1.43,1.43a7.99,7.99 0 0 0 -6.57,-3.43z" fill="#fff" id="svg_1"/>
 </g>
</svg>
